frontend/public/svg/hand gestures/swipe-left.svg

<svg width="115" height="136" viewBox="0 0 115 136" fill="none" xmlns="http://www.w3.org/2000/svg">
<g clip-path="url(#clip0)">
<path d="M7.9145 102.691C8.95085 103.129 10.039 103.471 11.0918 103.802C11.4199 103.906 11.7481 104.01 12.0763 104.116C18.1528 106.009 23.8292 109.005 28.8215 112.953C36.9365 119.456 45.1479 125.574 52.109 130.701C54.0525 132.115 56.252 133.136 58.5855 133.711C62.9785 134.812 67.4875 135.385 72.0163 135.417C81.7097 135.466 91.1374 132.252 98.7837 126.294C109.468 118.221 114.871 107.922 114.838 95.6721C114.839 90.8329 114.353 86.0062 113.388 81.2641C111.573 71.9763 108.652 62.9385 104.689 54.3445C102.583 49.8893 100.134 46.4757 97.2026 43.9087C95.9654 42.7907 94.5044 41.9491 92.9173 41.4398C91.3297 40.9305 89.6514 40.7653 87.9948 40.9552C86.3152 41.1654 84.7 41.7306 83.256 42.6132C81.8121 43.496 80.5723 44.6758 79.6193 46.0746C79.3666 46.4316 79.1224 46.7965 78.8428 47.2127L78.5934 47.5822C74.9803 44.6575 71.3041 43.5372 67.37 44.1522C63.5674 44.7481 61.8916 45.99 58.1459 51.07C50.2902 46.9902 46.3037 49.5106 42.6065 55.0277C42.0027 53.8851 41.4179 52.7633 40.8423 51.6594C39.3984 48.8863 38.0304 46.2669 36.5575 43.6751C33.1721 37.7155 29.8419 31.9003 26.3279 26.2742C24.3034 23.0712 21.4724 20.4569 18.1185 18.6935C14.4194 16.7285 11.1559 17.3926 8.4183 20.6677C7.37728 21.8587 6.65044 23.2909 6.30381 24.8342C5.95718 26.3775 6.00182 27.9829 6.4336 29.5047C7.0079 31.666 7.78756 33.8037 8.54104 35.8712C8.92828 36.9305 9.31427 37.9898 9.67525 39.0564C13.9296 51.6134 19.8589 63.6592 25.5934 75.3079L26.542 77.2335C27.025 78.2181 27.468 79.2026 27.9806 80.3426C28.1512 80.722 28.3278 81.1145 28.5135 81.524L27.9931 81.4315C27.3288 81.3153 26.78 81.2195 26.2346 81.1073C19.8268 79.8025 13.1651 80.7476 7.37354 83.7845C2.96429 85.997 0.930824 89.0201 1.15726 93.0257C1.41586 97.6562 3.69034 100.908 7.9145 102.691ZM32.0853 91.9926C33.6933 93.7483 35.1595 94.2163 36.5719 93.4254C38.0447 92.5991 38.6158 91.165 38.224 89.278C37.9719 88.1616 37.5913 87.0786 37.0898 86.0501C35.3671 82.3655 33.6309 78.6867 31.8811 75.0132C28.3474 67.5598 24.6931 59.8518 21.2768 52.1956C18.8582 46.7755 16.725 41.1147 14.6622 35.6395C14.0303 33.9623 13.396 32.287 12.7589 30.6133C12.1764 29.3344 11.8976 27.938 11.9449 26.5334C12.1101 25.2242 12.7474 24.0202 13.7373 23.1474C14.0694 22.8948 15.6572 23.3154 16.5866 24.017C18.2 25.1673 19.6173 26.5701 20.784 28.1716C23.0817 31.4768 25.1816 34.9153 27.0723 38.469C30.274 44.5933 33.4387 50.8691 36.4992 56.9383C37.983 59.8808 39.4705 62.8215 40.9622 65.7601L41.0673 65.9688C41.4136 66.7459 41.8709 67.4686 42.4251 68.1144C42.779 68.5673 43.2587 68.9059 43.8038 69.0877C44.349 69.2702 44.9358 69.2873 45.4908 69.1383C46.0458 68.9886 46.5445 68.6788 46.9247 68.2476C47.3047 67.8164 47.5494 67.2835 47.6281 66.7138C47.7371 66.1158 47.7622 65.5058 47.7027 64.901C47.6712 64.4899 47.6696 64.0771 47.6976 63.6657C47.7541 63.0685 47.7967 62.4647 47.8387 61.8615C47.8993 60.1463 48.1362 58.4417 48.5456 56.7749C48.638 56.1498 48.9091 55.5648 49.3263 55.0902C49.7435 54.6157 50.2888 54.272 50.8969 54.1003C51.505 53.9288 52.1498 53.9366 52.7535 54.123C53.3572 54.3094 53.8943 54.6666 54.2998 55.1511C55.3934 56.2858 56.3156 57.5739 57.0373 58.9749C57.2388 59.3201 57.4389 59.6648 57.643 60.0021C57.9552 60.572 58.2038 61.1747 58.3837 61.7991C58.4906 62.1273 58.598 62.4503 58.7214 62.7673C59.3869 64.4738 60.6615 65.155 62.3069 64.6909C63.7896 64.2722 64.4892 63.1158 64.2759 61.4415C64.19 60.7641 64.0792 60.0894 63.9677 59.4153C63.86 58.759 63.7523 58.1092 63.6683 57.4528C63.5677 56.6916 63.5303 55.9232 63.5561 55.1557L63.5693 54.8026C63.648 52.6695 63.7228 50.6545 65.9537 49.7277C68.7543 48.5627 71.4105 48.9829 73.4359 50.9092C74.4276 51.9529 75.2783 53.1224 75.9661 54.3877C76.1879 54.7553 76.4085 55.1216 76.6349 55.48C76.8568 55.8577 77.0477 56.2528 77.2059 56.6613C77.435 57.3306 77.7947 57.9476 78.2646 58.4767C79.0588 59.2558 80.4482 59.9404 81.4058 59.7362C82.3634 59.5321 83.344 58.3317 83.7325 57.2908C83.9964 56.4635 84.1447 55.6035 84.1723 54.7356C84.211 54.2427 84.2504 53.7334 84.3351 53.2537C84.4886 52.1667 84.7564 51.0989 85.1332 50.0678C85.8328 48.3331 86.9709 47.1989 88.3453 46.874C89.0239 46.7497 89.7229 46.7923 90.3812 46.9982C91.0402 47.204 91.6388 47.5668 92.1258 48.0554C94.3245 49.9877 97.0405 52.5894 98.5257 55.581C104.409 67.4226 107.813 79.5084 108.643 91.5043C108.684 92.0989 108.672 92.7146 108.661 93.3099C108.655 93.598 108.65 93.8855 108.65 94.173V94.1868C109.419 113.136 89.0856 126.523 74.7493 127.414C63.7883 128.098 54.7636 125.086 47.1705 118.213C41.8003 113.352 35.9918 108.779 31.018 104.948C26.0075 101.05 20.3051 98.1353 14.2113 96.3566L14.0539 96.3113C12.498 95.9175 10.9841 95.3721 9.53421 94.6836C8.20906 93.9938 7.42677 93.0913 7.3316 92.1423C7.24037 91.2286 7.76354 90.2835 8.84584 89.4099C10.3523 88.1701 12.1013 87.2591 13.9808 86.7354C15.9076 86.2155 17.8924 85.9418 19.8879 85.9202C22.876 85.8723 25.8109 86.7157 28.3174 88.3434C29.5005 89.2006 30.5688 90.2061 31.4965 91.335C31.6915 91.5562 31.8877 91.7754 32.0853 91.9913V91.9926Z" fill="black"/>
<path d="M45.6002 15.1755C56.3722 15.5141 66.7243 19.4307 75.0231 26.307C75.3434 26.5656 75.661 26.8321 75.978 27.0946C76.8608 27.8271 77.7731 28.5845 78.7412 29.2395C79.456 29.7815 80.3158 30.0991 81.211 30.1518C81.5779 30.1487 81.9409 30.0698 82.2763 29.9202C82.611 29.7705 82.9122 29.5533 83.1597 29.2822C84.9318 27.4838 83.4137 25.547 82.9149 24.9103C82.2205 24.0014 81.4348 23.1658 80.5711 22.4162C72.7928 15.8128 64.1987 11.6451 55.029 10.0292C52.8198 9.63997 50.6137 9.44897 48.2772 9.24682C47.4239 9.17266 46.5648 9.09849 45.6925 9.01251C45.9949 8.6892 46.2929 8.37212 46.586 8.06141C47.5987 6.98504 48.5548 5.96908 49.4678 4.91106C50.5264 3.68502 50.6204 2.41106 49.7238 1.41802C48.3744 -0.0817142 46.8898 0.943475 46.0024 1.55518C42.3473 4.0788 38.7704 6.54338 35.2084 8.93441C33.179 10.2983 32.1053 11.8597 32.1046 13.4507C32.1046 14.9189 33.0331 16.3215 34.7953 17.5062C37.7417 19.3863 40.819 21.0533 44.0033 22.4943L45.447 23.1913C46.5479 23.6068 47.7365 23.7356 48.9008 23.5655C49.2733 23.5671 49.6403 23.4755 49.9684 23.2989C50.2963 23.1224 50.5747 22.8665 50.7785 22.5547C50.9327 22.2317 51.0036 21.8751 50.9842 21.5177C50.9649 21.1602 50.8559 20.8134 50.6676 20.5089C50.0636 19.392 49.2451 18.4052 48.2589 17.6053C47.4165 16.9512 46.5238 16.3645 45.589 15.8509C45.3068 15.6848 45.0102 15.5102 44.6984 15.3258L44.7725 15.3101C45.0423 15.234 45.3201 15.1888 45.6002 15.1755Z" fill="black"/>
</g>
<defs>
<clipPath id="clip0">
<rect width="114.203" height="135.206" fill="white" transform="translate(0.659912 0.447266)"/>
</clipPath>
</defs>
</svg>

<svg xmlns="http://www.w3.org/2000/svg" width="115" height="136" fill="none" viewBox="0 0 115 136"><g fill="#000" clip-path="url(#a)"><path d="M7.915 102.691c1.036.438 2.124.78 3.177 1.111l.984.314a51.9 51.9 0 0 1 16.746 8.837c8.115 6.503 16.326 12.621 23.287 17.748a18.6 18.6 0 0 0 6.477 3.01 57 57 0 0 0 13.43 1.706 43.2 43.2 0 0 0 26.768-9.123c10.684-8.073 16.087-18.372 16.054-30.622a72 72 0 0 0-1.45-14.408 118.6 118.6 0 0 0-8.699-26.92c-2.106-4.455-4.555-7.868-7.486-10.435a11.74 11.74 0 0 0-9.208-2.954 11.93 11.93 0 0 0-8.376 5.12c-.252.357-.497.721-.776 1.138l-.25.37c-3.613-2.925-7.289-4.046-11.223-3.43-3.803.595-5.478 1.837-9.224 6.917-7.856-4.08-11.842-1.56-15.54 3.958-.603-1.143-1.188-2.265-1.764-3.369-1.444-2.773-2.812-5.392-4.285-7.984-3.385-5.96-6.715-11.775-10.23-17.4a21.6 21.6 0 0 0-8.208-7.581c-3.7-1.965-6.963-1.301-9.7 1.974a9.49 9.49 0 0 0-1.985 8.837c.574 2.161 1.354 4.299 2.107 6.366.387 1.06.773 2.119 1.134 3.185C13.93 51.613 19.86 63.66 25.593 75.308l.949 1.925c.483.985.926 1.97 1.439 3.11l.532 1.181-.52-.093a60 60 0 0 1-1.758-.324 28.4 28.4 0 0 0-18.861 2.677C2.964 85.997.93 89.02 1.157 93.027c.259 4.63 2.533 7.882 6.758 9.665m24.17-10.698c1.608 1.755 3.075 2.223 4.487 1.432 1.473-.826 2.044-2.26 1.652-4.147a14.8 14.8 0 0 0-1.134-3.228 1698 1698 0 0 0-5.209-11.037c-3.534-7.453-7.188-15.161-10.604-22.817-2.419-5.42-4.552-11.081-6.615-16.556q-.948-2.516-1.903-5.027a9.1 9.1 0 0 1-.814-4.08 5.42 5.42 0 0 1 1.792-3.386c.332-.252 1.92.168 2.85.87a18.4 18.4 0 0 1 4.197 4.155 102 102 0 0 1 6.288 10.297c3.202 6.124 6.367 12.4 9.427 18.47q2.226 4.413 4.463 8.821l.105.209c.347.777.804 1.5 1.358 2.145a2.924 2.924 0 0 0 4.5.134c.38-.432.624-.965.703-1.534a6.5 6.5 0 0 0 .075-1.813 9 9 0 0 1-.005-1.235 71 71 0 0 0 .14-1.804c.061-1.716.298-3.42.708-5.087A3.278 3.278 0 0 1 54.3 55.15a16.2 16.2 0 0 1 2.737 3.824q.301.52.606 1.027c.312.57.56 1.173.74 1.797.108.328.215.651.338.968.666 1.707 1.94 2.388 3.586 1.924 1.483-.419 2.182-1.575 1.969-3.25a54 54 0 0 0-.308-2.026c-.108-.656-.216-1.306-.3-1.962a14 14 0 0 1-.112-2.297l.013-.353c.079-2.133.154-4.148 2.385-5.075 2.8-1.165 5.457-.745 7.482 1.181a16.5 16.5 0 0 1 2.53 3.479c.222.367.443.734.669 1.092q.334.568.57 1.181c.23.67.59 1.287 1.06 1.816.794.779 2.183 1.463 3.14 1.26.958-.205 1.939-1.405 2.328-2.446a9.4 9.4 0 0 0 .44-2.555c.038-.493.077-1.003.162-1.482.154-1.087.421-2.155.798-3.186.7-1.735 1.838-2.87 3.212-3.194a4.25 4.25 0 0 1 3.78 1.181c2.2 1.933 4.915 4.534 6.4 7.526 5.884 11.842 9.288 23.927 10.118 35.923.041.595.029 1.21.018 1.806a42 42 0 0 0-.011.863v.014c.769 18.949-19.564 32.336-33.9 33.227-10.962.684-19.986-2.328-27.58-9.201-5.37-4.861-11.178-9.434-16.152-13.265a50.3 50.3 0 0 0-16.807-8.591l-.157-.046a24.6 24.6 0 0 1-4.52-1.627c-1.325-.69-2.107-1.593-2.202-2.542-.092-.913.432-1.858 1.514-2.732a14 14 0 0 1 5.135-2.675 23.7 23.7 0 0 1 5.907-.815 15.04 15.04 0 0 1 8.43 2.423 17 17 0 0 1 3.178 2.992q.294.332.59.656zM45.6 15.176a48.5 48.5 0 0 1 29.423 11.131c.32.259.638.525.955.788.883.732 1.795 1.49 2.763 2.145.715.542 1.575.86 2.47.912a2.67 2.67 0 0 0 1.949-.87c1.772-1.798.254-3.735-.245-4.372a17 17 0 0 0-2.344-2.494C72.793 15.813 64.2 11.646 55.03 10.03c-2.21-.389-4.415-.58-6.752-.782-.853-.074-1.712-.149-2.584-.234q.453-.485.893-.952c1.013-1.076 1.969-2.092 2.882-3.15 1.058-1.226 1.152-2.5.256-3.493-1.35-1.5-2.834-.475-3.722.137a1001 1001 0 0 1-10.794 7.38c-2.029 1.363-3.103 2.925-3.103 4.516 0 1.468.928 2.87 2.69 4.055a73 73 0 0 0 9.208 4.988l1.444.697a6.94 6.94 0 0 0 3.454.375 2.23 2.23 0 0 0 1.877-1.011 2.14 2.14 0 0 0-.11-2.046 9.7 9.7 0 0 0-2.41-2.904 20 20 0 0 0-2.669-1.754q-.423-.248-.89-.525l.074-.016q.406-.114.827-.135"/></g><defs><clipPath id="a"><path fill="#fff" d="M.66.447h114.203v135.206H.66z"/></clipPath></defs></svg>
